X:17134
T:The Queen Of The West
R:Hornpipe
S:Tommy Peoples/Sharon Shannon
H:
N:
D:Concert in Galway
Z:Adrian Scahill
M:4/4
L:1/8
K:D
DFAF F2A,2|EGAG (3EFE A,E|FAdF GBec|Adfd (3cBA (3GFE|\
DFAF F2A,2|EGAG (3EFE A,E|FAdF Ggec|1 d2dc d2FE:|2 d2dc dfgf||\
ec (3AcA EAce|fd (3AdA FAdf|(3gag fg efdf|1 (3efe (3dcB ABcd|\
ec (3AcA EAce|fd (3AdA FAdf|gbag fdec|(3ded ce d2gf:|2 (3e^de f^g a2 (3efg|\
aece (3Ace ge|fdAF D2ef|gbag fdec|(3ded AF D4:||
